X: 1
T: Paddy O'Brien's Return To Erin
M: 6/8
L: 1/8
R: jig
K: Dmaj
|:d | dAF DFA | dcd fed | cAA gAA | fAA eAA |
dAF DFA | dcd fed | gbg afd | ecA d2 :|
|: A | FAA BAG | FAd fed | gbg faf | ecA ABG |
FAA BAG | FAd fed | gbg afd | ecA d2 :|
|: G | FDA GEB | AFd fed | cAg faf | eAc eAG |
FDA GEB | AFd fed | cde gec | edc d2 :|
